packages/core/src/svgs/tokens/mono/PAID.svg

<svg width="24" height="24" viewBox="0 0 24 24" fill="none" xmlns="http://www.w3.org/2000/svg">
<path d="M14.0003 8.66682V10.0001L13.9936 10.2135L14.4669 12.4802C15.0282 11.7755 15.3337 10.9011 15.3335 10.0001V8.66682C15.3335 7.60595 14.9121 6.5885 14.162 5.83835C13.4118 5.08819 12.3944 4.66675 11.3335 4.66675H6.00007C4.93918 4.66675 3.92175 5.08819 3.17159 5.83835C2.42144 6.5885 2 7.60595 2 8.66682V10.0001C1.99955 10.7028 2.18417 11.3931 2.53526 12.0017C2.88637 12.6102 3.39158 13.1156 4.00003 13.4669V11.7669C3.5867 11.3003 3.33335 10.6735 3.33335 10.0001V8.66682C3.33335 7.95958 3.61431 7.28128 4.11443 6.78117C4.61453 6.28107 5.29281 6.00012 6.00007 6.00012H11.3335C12.0407 6.00012 12.7191 6.28107 13.2192 6.78117C13.7193 7.28128 14.0003 7.95958 14.0003 8.66682Z" fill="white"/>
<path d="M13.3325 3.33335H14.6658C15.3732 3.33335 16.0514 3.61431 16.5515 4.11443C17.0516 4.61453 17.3326 5.29281 17.3326 6.00007V11.3335C17.3326 12.0407 17.0516 12.7191 16.5515 13.2192C16.0514 13.7193 15.3732 14.0003 14.6658 14.0003H13.3325C12.6252 14.0003 11.947 13.7193 11.4469 13.2192C10.9467 12.7191 10.6658 12.0407 10.6658 11.3335H9.33252C9.33252 12.3944 9.75393 13.4118 10.504 14.162C11.2543 14.9121 12.2716 15.3335 13.3325 15.3335H14.6658C15.7267 15.3335 16.7443 14.9121 17.4944 14.162C18.2446 13.4118 18.666 12.3944 18.666 11.3335V6.00007C18.666 4.93918 18.2446 3.92175 17.4944 3.17159C16.7443 2.42144 15.7267 2 14.6658 2H13.3325C12.6299 1.99955 11.9397 2.18417 11.3311 2.53526C10.7224 2.88637 10.2172 3.39158 9.86577 4.00003H11.5659C12.0325 3.5867 12.6591 3.33335 13.3325 3.33335Z" fill="white"/>
<path d="M8.66609 9.99979H9.99938C10.7067 9.99979 11.3849 10.2809 11.8851 10.7809C12.3852 11.281 12.6661 11.9594 12.6661 12.6665V13.3333H13.9996V12.6665C13.9996 11.6056 13.5782 10.5883 12.8279 9.83817C12.0778 9.08791 11.0603 8.6665 9.99938 8.6665H8.66609C7.60521 8.6665 6.58777 9.08791 5.83762 9.83817C5.08745 10.5883 4.66602 11.6056 4.66602 12.6665V18C4.66602 19.0609 5.08745 20.0783 5.83762 20.8285C6.58777 21.5786 7.60521 22 8.66609 22H9.99938C10.827 22.0005 11.6343 21.7443 12.3102 21.2667C12.9859 20.789 13.497 20.1136 13.7729 19.3333H12.3062C12.0723 19.7384 11.7362 20.0747 11.3313 20.3088C10.9264 20.5428 10.4671 20.6663 9.99938 20.6667H8.66609C7.95884 20.6667 7.28055 20.3858 6.78044 19.8857C6.28034 19.3856 5.99938 18.7073 5.99938 18V12.6665C5.99938 11.9594 6.28034 11.281 6.78044 10.7809C7.28055 10.2809 7.95884 9.99979 8.66609 9.99979Z" fill="white"/>
<path d="M20 11.5668C20.4133 12.0335 20.6667 12.6601 20.6667 13.3335V14.6668C20.6667 15.3741 20.3858 16.0523 19.8857 16.5524C19.3856 17.0526 18.7073 17.3335 18 17.3335H12.6665C11.9594 17.3335 11.281 17.0526 10.7809 16.5524C10.2809 16.0523 9.99979 15.3741 9.99979 14.6668V14.4001L8.6665 13.3335V14.6668C8.6665 15.7277 9.08791 16.7452 9.83817 17.4953C10.5883 18.2455 11.6056 18.6669 12.6665 18.6669H18C19.0609 18.6669 20.0783 18.2455 20.8285 17.4953C21.5786 16.7452 22 15.7277 22 14.6668V13.3335C22.0005 12.6308 21.8158 11.9406 21.4648 11.3321C21.1137 10.7234 20.6086 10.2181 20 9.8667V11.5668Z" fill="white"/>
</svg>

<svg xmlns="http://www.w3.org/2000/svg" width="24" height="24" fill="none" viewBox="0 0 24 24">
    <path fill="#fff" d="M14 8.667V10l-.006.213.473 2.267a3.98 3.98 0 0 0 .867-2.48V8.667a4 4 0 0 0-4-4H6a4 4 0 0 0-4 4V10a4 4 0 0 0 2 3.467v-1.7A2.67 2.67 0 0 1 3.333 10V8.667A2.667 2.667 0 0 1 6 6h5.334A2.667 2.667 0 0 1 14 8.667"/>
    <path fill="#fff" d="M13.333 3.333h1.333A2.667 2.667 0 0 1 17.333 6v5.334A2.667 2.667 0 0 1 14.666 14h-1.334a2.667 2.667 0 0 1-2.666-2.666H9.333a4 4 0 0 0 4 4h1.333a4 4 0 0 0 4-4V6a4 4 0 0 0-4-4h-1.334a4 4 0 0 0-3.466 2h1.7a2.67 2.67 0 0 1 1.766-.667"/>
    <path fill="#fff" d="M8.666 10H10a2.667 2.667 0 0 1 2.667 2.666v.667H14v-.667a4 4 0 0 0-4-4H8.665a4 4 0 0 0-4 4V18a4 4 0 0 0 4 4H10a4 4 0 0 0 3.774-2.667h-1.467A2.67 2.67 0 0 1 10 20.667H8.666A2.667 2.667 0 0 1 6 18v-5.334A2.667 2.667 0 0 1 8.666 10"/>
    <path fill="#fff" d="M20 11.567c.413.466.667 1.093.667 1.767v1.333A2.666 2.666 0 0 1 18 17.334h-5.334A2.666 2.666 0 0 1 10 14.667V14.4l-1.334-1.066v1.333a4 4 0 0 0 4 4H18a4 4 0 0 0 4-4v-1.333a4 4 0 0 0-2-3.467z"/>
</svg>
